!!!SOCIAL_FUNCTION:	songs connected with war and hunting
!!!PDT:	1932
!!!OTL: No_44_I_Am_Standing_On_a_Cloud.krn
!!!REG: Wisconsin
!!!LANG: Non-Tone
!!!LING_GROUP: Algonquin
**kern
*staff1
=1-
*clefF4
*k[b-e-]
*M2/4
8.c\L
16c\Jk
8.c\L
16c\Jk
=2||
*M3/4
8.B-\L
16B-\Jk
8G\
8r
8.B-\L
16c\Jk
=3||
*M2/4
[2B-\
=4
4B-\]
8.B-\L
16G\Jk
=5
4F\
[4F\
=6||
*M3/4
2F\]
4r
=7||
*M2/4
8.B-\L
16B-\Jk
8.B-\L
16G\Jk
=8||
*M3/4
8.F\L
16F\Jk
8D\
8r
8.F\L
16G\Jk
=9
2F\
8.F\L
16D\Jk
=10||
*M2/4
4C/
[4BB-/
=11
4BB-/]
4r
=12
8.C/L
16C/Jk
8.C/L
16C/Jk
=13||
*M3/4
8.BB-/L
16BB-/Jk
8FF/
8r
8.BB-/L
16C/Jk
=14||
*M2/4
[2BB-/
=15
4BB-/]
8.BB-/L
16GG/Jk
=16
2FF/
=17
2FF/
==
*-
